; generated by PrusaSlicer 2.4.1+arm64 on 2022-03-28 at 15:08:40 UTC

; 

; external perimeters extrusion width = 0.45mm
; perimeters extrusion width = 0.45mm
; infill extrusion width = 0.45mm
; solid infill extrusion width = 0.45mm
; top infill extrusion width = 0.40mm
; first layer extrusion width = 0.42mm

M73 P0 R112
M73 Q0 S113
M201 X1000 Y1000 Z200 E5000 ; sets maximum accelerations, mm/sec^2
M203 X200 Y200 Z12 E120 ; sets maximum feedrates, mm / sec
M204 P1250 R1250 T1250 ; sets acceleration (P, T) and retract acceleration (R), mm/sec^2
M205 X8.00 Y8.00 Z0.40 E4.50 ; sets the jerk limits, mm/sec
M205 S0 T0 ; sets the minimum extruding and travel feed rate, mm/sec
M107
;TYPE:Custom
M862.3 P "MK3S" ; printer model check
M862.1 P0.4 ; nozzle diameter check
M115 U3.10.1 ; tell printer latest fw version
G90 ; use absolute coordinates
M83 ; extruder relative mode
M104 S215 ; set extruder temp
M140 S60 ; set bed temp
M190 S60 ; wait for bed temp
M109 S215 ; wait for extruder temp
G28 W ; home all without mesh bed level
G80 ; mesh bed leveling
G1 Z0.2 F720
G1 Y-3 F1000 ; go outside print area
G92 E0
G1 X60 E9 F1000 ; intro line
G1 X100 E12.5 F1000 ; intro line
G92 E0
M221 S95

; Don't change E values below. Excessive value can damage the printer.
M907 E430 ; set extruder motor current
G21 ; set units to millimeters
G90 ; use absolute coordinates
M83 ; use relative distances for extrusion
M900 K0.05 ; Filament gcode LA 1.5
M900 K30 ; Filament gcode LA 1.0
M107
;LAYER_CHANGE
;Z:0.2
;HEIGHT:0.2
;BEFORE_LAYER_CHANGE
G92 E0.0
;0.2


G1 E-.8 F2100
G1 Z.4 F720
;AFTER_LAYER_CHANGE
;0.2
G1 X23.587 Y93.315 F10800
G1 Z.2 F720
G1 E.8 F2100
M204 S800
;TYPE:Skirt/Brim
;WIDTH:0.42
G1 F1200
G1 X24.812 Y93.161 E.03871
G1 X239.736 Y93.179 E6.7388
G1 X241.389 Y93.501 E.05281
M73 Q0 S112
G1 X242.491 Y93.929 E.03706
G1 X243.886 Y94.777 E.05117
G1 X244.858 Y95.648 E.04095
G1 X245.853 Y96.942 E.05118
G1 X246.399 Y97.99 E.03706
G1 X246.888 Y99.547 E.05117
G1 X247.028 Y100.559 E.03202
G1 X247.045 Y176.232 E2.37265
G1 X246.939 Y177.248 E.03202
G1 X246.743 Y178.123 E.02814
G1 X246.399 Y179.085 E.03202
G1 X246 Y179.889 E.02814
G1 X245.333 Y180.882 E.03748
G1 X230.113 Y199.958 E.76519
G1 X229.463 Y200.629 E.02929
G1 X228.43 Y201.448 E.04132
G1 X227.592 Y201.955 E.03069
G1 X226.383 Y202.478 E.04132
G1 X225.137 Y202.811 E.04042
G1 X223.648 Y202.965 E.04695
G1 X108.872 Y202.923 E3.59873
G1 X107.812 Y202.773 E.03354
G1 X22.861 Y183.575 E2.73076
G1 X22.019 Y183.266 E.02814
M73 P0 R111
G1 X21.11 Y182.799 E.03203
G1 X20.141 Y182.121 E.03707
G1 X19.392 Y181.427 E.03202
G1 X18.814 Y180.742 E.02812
G1 X18.251 Y179.889 E.03203
G1 X17.852 Y179.085 E.02816
G1 X17.362 Y177.528 E.05116
G1 X17.206 Y176.232 E.04094
G1 X17.206 Y100.844 E2.36374
G1 X17.311 Y99.827 E.03203
G1 X17.592 Y98.68 E.03704
G1 X18.251 Y97.186 E.05119
G1 X18.814 Y96.334 E.03203
G1 X19.593 Y95.446 E.03704
G1 X20.365 Y94.777 E.03203
G1 X21.11 Y94.276 E.02815
G1 X22.59 Y93.588 E.05117
G1 X23.529 Y93.331 E.03053
M204 S1000
;WIPE_START
G1 F8640
G1 X24.812 Y93.161 E-.29877
G1 X26.809 Y93.161 E-.46123
;WIPE_END
G1 E-.04 F2100
G1 Z.6 F720
G1 X24.124 Y95.994 F10800
G1 Z.2 F720
G1 E.8 F2100
M204 S800
G1 F1200
G1 X24.884 Y95.824 E.02442
G1 X239.384 Y95.826 E6.72549
G1 X240.814 Y96.12 E.04578
G1 X241.866 Y96.624 E.03659
G1 X242.774 Y97.336 E.03618
G1 X243.567 Y98.32 E.03964
G1 X244.103 Y99.45 E.03919
G1 X244.364 Y100.731 E.04099
G1 X244.295 Y102.101 E.04303
G1 X243.986 Y103.101 E.0328
G1 X244.255 Y103.925 E.02716
G1 X244.379 Y105.148 E.03856
G1 X244.212 Y106.407 E.03982
G1 X243.75 Y107.591 E.03983
G1 X243.052 Y108.596 E.03838
G1 X242.11 Y109.441 E.03967
G1 X241.021 Y110.028 E.03877
G1 X239.873 Y110.342 E.03733
G1 X239.132 Y110.369 E.02323
G1 X239.132 Y166.713 E1.76664
G1 X239.935 Y166.746 E.02518
G1 X241.414 Y167.218 E.04869
G1 X242.33 Y167.799 E.03399
G1 X243.139 Y168.582 E.03531
G1 X243.846 Y169.673 E.04078
G1 X244.233 Y170.753 E.03595
G1 X244.379 Y171.842 E.03447
G1 X244.248 Y173.176 E.04201
G1 X243.987 Y173.957 E.02582
G1 X244.246 Y174.735 E.02574
G1 X244.375 Y175.655 E.02913
G1 X244.338 Y176.639 E.03088
G1 X243.783 Y178.375 E.05713
G1 X242.754 Y179.768 E.05429
G1 X242.096 Y180.3 E.02655
G1 X241.355 Y180.737 E.02697
G1 X239.908 Y181.184 E.04747
G1 X229.603 Y181.243 E.32311
G1 X229.562 Y194.858 E.42688
G1 X229.223 Y196.316 E.04694
G1 X228.538 Y197.643 E.04684
G1 X227.83 Y198.495 E.03474
G1 X226.957 Y199.227 E.03571
G1 X225.604 Y199.926 E.04775
G1 X223.672 Y200.301 E.06169
G1 X109.017 Y200.259 E3.59494
G1 X107.632 Y199.952 E.04447
G1 X106.594 Y199.469 E.03588
G1 X105.67 Y198.816 E.03549
G1 X104.458 Y197.379 E.05895
G1 X103.719 Y195.58 E.06098
G1 X103.556 Y194.311 E.04012
G1 X103.556 Y181.251 E.40949
G1 X24.867 Y181.251 E2.46722
G1 X23.293 Y180.902 E.05055
M73 P1 R111
G1 X21.861 Y180.084 E.05173
M73 Q1 S112
G1 X21.251 Y179.506 E.02631
G1 X20.725 Y178.826 E.02697
G1 X20.202 Y177.784 E.03655
G1 X19.877 Y176.211 E.05036
G1 X19.965 Y174.923 E.0405
G1 X20.274 Y173.975 E.03128
G1 X20.027 Y173.28 E.02313
G1 X19.871 Y171.855 E.04495
G1 X20.012 Y170.778 E.03404
G1 X20.367 Y169.749 E.03413
G1 X20.944 Y168.792 E.03503
G1 X21.721 Y167.961 E.03567
G1 X22.807 Y167.233 E.04099
G1 X24.376 Y166.736 E.05161
G1 X25.118 Y166.708 E.02329
G1 X25.118 Y110.364 E1.76664
G1 X24.32 Y110.333 E.02503
G1 X23.06 Y109.958 E.04122
G1 X22.035 Y109.365 E.03714
G1 X21.179 Y108.574 E.03653
G1 X20.44 Y107.473 E.04161
G1 X20.029 Y106.368 E.03697
G1 X19.872 Y105.204 E.03681
G1 X19.997 Y103.92 E.04045
G1 X20.267 Y103.099 E.02712
G1 X20.032 Y102.456 E.02146
G1 X19.87 Y101.229 E.0388
G1 X19.986 Y100.043 E.03736
G1 X20.373 Y98.887 E.03824
G1 X21.237 Y97.584 E.04903
G1 X22.164 Y96.769 E.03868
G1 X23.245 Y96.19 E.03846
G1 X24.065 Y96.007 E.02633
M204 S1000
G1 X24.145 Y96.37 F10800
M204 S800
G1 F1200
G1 X24.904 Y96.201 E.02437
G1 X239.365 Y96.203 E6.72426
G1 X240.673 Y96.471 E.04188
M73 Q1 S111
G1 X241.65 Y96.934 E.03391
G1 X242.524 Y97.619 E.03481
G1 X243.259 Y98.538 E.03688
G1 X243.752 Y99.59 E.03642
G1 X243.987 Y100.735 E.03667
G1 X243.919 Y102.058 E.04151
G1 X243.59 Y103.104 E.03439
G1 X243.882 Y103.985 E.02912
G1 X244.003 Y105.121 E.03581
G1 X243.841 Y106.335 E.03839
G1 X243.427 Y107.395 E.03569
G1 X242.783 Y108.332 E.03565
G1 X241.909 Y109.12 E.0369
G1 X240.9 Y109.67 E.03602
G1 X239.796 Y109.972 E.0359
G1 X238.755 Y110 E.03264
G1 X238.755 Y167.082 E1.78976
G1 X239.846 Y167.113 E.03422
G1 X241.276 Y167.57 E.04704
G1 X242.11 Y168.105 E.0311
G1 X242.835 Y168.805 E.03157
G1 X243.518 Y169.859 E.03939
G1 X243.87 Y170.859 E.03324
G1 X244.002 Y171.869 E.03194
G1 X243.876 Y173.115 E.03928
G1 X243.588 Y173.956 E.02785
G1 X243.876 Y174.805 E.02812
G1 X243.999 Y175.69 E.02802
G1 X243.962 Y176.599 E.02851
G1 X243.461 Y178.177 E.05193
G1 X242.497 Y179.491 E.05107
G1 X241.89 Y179.984 E.02453
G1 X241.22 Y180.385 E.02448
G1 X239.877 Y180.807 E.04413
G1 X229.227 Y180.868 E.33394
G1 X229.19 Y194.794 E.43666
G1 X228.877 Y196.165 E.04409
G1 X228.235 Y197.418 E.04415
G1 X227.551 Y198.241 E.03354
G1 X226.732 Y198.923 E.03344
G1 X225.456 Y199.578 E.04496
G1 X223.655 Y199.924 E.05751
G1 X109.077 Y199.886 E3.5925
G1 X107.771 Y199.601 E.04192
M73 P1 R110
G1 X106.798 Y199.151 E.03361
G1 X105.908 Y198.522 E.03417
G1 X104.766 Y197.16 E.05573
G1 X104.078 Y195.462 E.05745
G1 X103.933 Y194.3 E.03672
G1 X103.933 Y180.874 E.42095
G1 X24.888 Y180.874 E2.47838
G1 X23.404 Y180.54 E.0477
G1 X22.104 Y179.795 E.04699
G1 X21.522 Y179.243 E.02515
G1 X21.035 Y178.611 E.02501
G1 X20.55 Y177.638 E.03408
G1 X20.255 Y176.211 E.04568
G1 X20.339 Y174.973 E.03892
G1 X20.674 Y173.969 E.03319
G1 X20.399 Y173.214 E.0252
G1 X20.248 Y171.88 E.04207
G1 X20.383 Y170.847 E.03268
G1 X20.717 Y169.893 E.03168
G1 X21.256 Y169.005 E.03256
G1 X21.98 Y168.236 E.03314
G1 X22.992 Y167.563 E.03812
G1 X24.462 Y167.104 E.04826
G1 X25.495 Y167.077 E.03241
G1 X25.495 Y109.996 E1.78976
G1 X24.402 Y109.964 E.03428
G1 X23.228 Y109.619 E.03836
G1 X22.275 Y109.073 E.03444
G1 X21.451 Y108.312 E.03516
G1 X20.785 Y107.319 E.03751
G1 X20.4 Y106.296 E.03429
G1 X20.249 Y105.176 E.03542
G1 X20.37 Y103.98 E.03769
G1 X20.668 Y103.092 E.02938
G1 X20.403 Y102.383 E.02371
G1 X20.248 Y101.244 E.03606
G1 X20.359 Y100.102 E.03597
G1 X20.722 Y99.032 E.03544
G1 X21.506 Y97.85 E.04448
G1 X22.362 Y97.091 E.03585
G1 X23.401 Y96.535 E.03695
G1 X24.087 Y96.383 E.02204
M204 S1000
G1 X24.167 Y96.745 F10800
M204 S800
G1 F1200
G1 X24.924 Y96.578 E.02433
G1 X239.345 Y96.58 E6.72301
G1 X240.573 Y96.835 E.03934
G1 X241.468 Y97.265 E.03113
G1 X242.245 Y97.873 E.03091
G1 X242.927 Y98.719 E.03408
G1 X243.401 Y99.729 E.03497
G1 X243.612 Y100.785 E.03378
G1 X243.544 Y102.012 E.03852
G1 X243.193 Y103.106 E.03605
G1 X243.509 Y104.046 E.03109
G1 X243.625 Y105.138 E.03444
G1 X243.481 Y106.22 E.03421
G1 X243.103 Y107.201 E.03298
G1 X242.512 Y108.069 E.0329
G1 X241.709 Y108.8 E.03407
G1 X240.74 Y109.328 E.03459
G1 X239.721 Y109.602 E.03308
G1 X238.378 Y109.629 E.04211
G1 X238.378 Y167.452 E1.813
G1 X239.76 Y167.481 E.04333
G1 X241.093 Y167.901 E.04383
G1 X241.89 Y168.412 E.02969
G1 X242.556 Y169.06 E.02911
G1 X243.188 Y170.044 E.03667
G1 X243.507 Y170.963 E.03053
G1 X243.626 Y171.894 E.02941
G1 X243.503 Y173.053 E.03654
G1 X243.189 Y173.954 E.02993
G1 X243.505 Y174.876 E.03053
G1 X243.623 Y175.725 E.0269
G1 X243.587 Y176.558 E.02613
G1 X243.138 Y177.981 E.04678
G1 X242.24 Y179.214 E.04785
G1 X241.685 Y179.668 E.02247
G1 X241.046 Y180.049 E.02333
G1 X239.793 Y180.439 E.04115
G1 X228.851 Y180.492 E.34308
G1 X228.817 Y194.732 E.44649
G1 X228.53 Y196.016 E.04124
G1 X227.93 Y197.194 E.04146
G1 X227.296 Y197.962 E.03124
G1 X226.507 Y198.62 E.03221
G1 X225.309 Y199.23 E.04213
G1 X223.637 Y199.547 E.05335
G1 X109.136 Y199.513 E3.5901
G1 X107.91 Y199.25 E.03933
G1 X106.972 Y198.817 E.03239
G1 X106.147 Y198.23 E.03175
G1 X105.075 Y196.942 E.05252
G1 X104.437 Y195.346 E.05391
G1 X104.31 Y194.289 E.03337
G1 X104.31 Y180.497 E.43243
G1 X24.91 Y180.497 E2.48953
G1 X23.516 Y180.179 E.04481
G1 X22.314 Y179.481 E.04361
G1 X21.794 Y178.981 E.0226
G1 X21.346 Y178.397 E.0231
G1 X20.899 Y177.493 E.03162
G1 X20.633 Y176.211 E.04103
G1 X20.714 Y175.024 E.03732
G1 X21.075 Y173.963 E.03514
G1 X20.77 Y173.146 E.02733
G1 X20.625 Y171.904 E.0392
G1 X20.745 Y170.952 E.03009
G1 X21.066 Y170.037 E.0304
G1 X21.566 Y169.22 E.03005
G1 X22.238 Y168.511 E.03061
G1 X23.177 Y167.893 E.03524
G1 X24.546 Y167.473 E.0449
G1 X25.872 Y167.449 E.0416
G1 X25.872 Y109.626 E1.81303
G1 X24.482 Y109.594 E.04359
M73 P2 R110
M73 Q2 S110
G1 X23.396 Y109.281 E.03545
G1 X22.482 Y108.757 E.03303
G1 X21.724 Y108.051 E.03245
G1 X21.13 Y107.166 E.03344
G1 X20.76 Y106.184 E.03291
G1 X20.625 Y105.15 E.03268
G1 X20.742 Y104.042 E.03495
G1 X21.069 Y103.084 E.03171
G1 X20.773 Y102.309 E.02603
G1 X20.625 Y101.256 E.03334
G1 X20.723 Y100.202 E.03319
G1 X21.072 Y99.176 E.03396
G1 X21.775 Y98.115 E.0399
G1 X22.595 Y97.389 E.03436
G1 X23.554 Y96.88 E.03404
G1 X24.108 Y96.758 E.01779
M204 S1000
G1 X24.187 Y97.121 F10800
M204 S800
G1 F1200
G1 X24.945 Y96.956 E.0243
G1 X239.325 Y96.957 E6.72175
G1 X240.472 Y97.199 E.03676
G1 X241.285 Y97.595 E.02836
G1 X241.966 Y98.128 E.0271
G1 X242.597 Y98.902 E.03131
G1 X243.036 Y99.826 E.03207
G1 X243.237 Y100.835 E.03226
G1 X243.17 Y101.964 E.03547
G1 X242.852 Y102.934 E.03201
G1 X242.746 Y103.123 E.0068
G1 X242.893 Y103.373 E.00908
G1 X243.137 Y104.108 E.02426
G1 X243.248 Y105.114 E.03174
G1 X243.12 Y106.108 E.03143
G1 X242.778 Y107.008 E.03019
G1 X242.213 Y107.837 E.03147
G1 X241.474 Y108.505 E.03123
G1 X240.582 Y108.985 E.03177
G1 X239.648 Y109.232 E.03028
G1 X238.001 Y109.257 E.05164
G1 X238.001 Y167.825 E1.83636
G1 X239.675 Y167.85 E.05249
G1 X240.913 Y168.233 E.04062
G1 X241.641 Y168.696 E.02708
G1 X242.277 Y169.314 E.02779
G1 X242.857 Y170.226 E.0339
G1 X243.144 Y171.066 E.02782
G1 X243.249 Y171.918 E.0269
G1 X243.131 Y172.989 E.0338
G1 X242.84 Y173.808 E.02725
G1 X242.754 Y173.966 E.00563
G1 X242.86 Y174.158 E.00688
G1 X243.134 Y174.948 E.02622
G1 X243.246 Y175.727 E.02467
G1 X243.211 Y176.516 E.02476
G1 X242.788 Y177.836 E.04347
M73 P2 R109
G1 X241.983 Y178.937 E.04278
G1 X241.457 Y179.367 E.02127
G1 X240.873 Y179.713 E.02129
G1 X239.709 Y180.07 E.03817
G1 X228.474 Y180.117 E.35226
G1 X228.445 Y194.672 E.45636
G1 X228.182 Y195.868 E.0384
G1 X227.626 Y196.971 E.03872
G1 X227.017 Y197.708 E.03
G1 X226.283 Y198.316 E.02987
G1 X225.164 Y198.881 E.03932
G1 X223.62 Y199.17 E.04923
G1 X109.195 Y199.14 E3.58773
G1 X108.047 Y198.898 E.03676
G1 X107.176 Y198.499 E.03006
G1 X106.386 Y197.937 E.0304
G1 X105.386 Y196.726 E.04925
G1 X104.797 Y195.231 E.05036
G1 X104.687 Y194.279 E.03007
G1 X104.687 Y180.12 E.44393
G1 X24.93 Y180.12 E2.50071
G1 X23.679 Y179.838 E.04021
G1 X22.558 Y179.192 E.04057
G1 X22.066 Y178.72 E.0214
G1 X21.657 Y178.183 E.02114
G1 X21.248 Y177.348 E.02917
G1 X21.011 Y176.211 E.03641
G1 X21.088 Y175.075 E.0357
G1 X21.477 Y173.957 E.03711
G1 X21.142 Y173.077 E.02953
G1 X21.002 Y171.927 E.03633
G1 X21.109 Y171.056 E.02751
G1 X21.398 Y170.216 E.02784
G1 X21.877 Y169.434 E.02875
G1 X22.495 Y168.788 E.02804
G1 X23.359 Y168.224 E.03237
G1 X24.628 Y167.842 E.04154
G1 X26.249 Y167.823 E.05084
G1 X26.249 Y109.254 E1.8364
G1 X24.561 Y109.225 E.05295
G1 X23.561 Y108.941 E.03257
G1 X22.722 Y108.465 E.03024
G1 X21.998 Y107.791 E.03104
G1 X21.456 Y106.976 E.03067
G1 X21.122 Y106.074 E.03018
G1 X21.002 Y105.126 E.02995
G1 X21.115 Y104.104 E.03225
G1 X21.371 Y103.348 E.02501
G1 X21.493 Y103.133 E.00776
G1 X21.143 Y102.232 E.03029
G1 X21.003 Y101.268 E.03055
G1 X21.096 Y100.26 E.03175
G1 X21.42 Y99.322 E.0311
G1 X22.044 Y98.38 E.03544
G1 X22.792 Y97.711 E.03146
G1 X23.708 Y97.225 E.0325
G1 X24.129 Y97.134 E.0135
M204 S1000
G1 X24.207 Y97.496 F10800
M204 S800
G1 F1200
G1 X24.964 Y97.333 E.0243
G1 X239.305 Y97.334 E6.72049
G1 X240.369 Y97.563 E.03413
G1 X241.1 Y97.924 E.02558
G1 X241.688 Y98.383 E.02339
G1 X242.267 Y99.087 E.02856
G1 X242.671 Y99.924 E.02913
G1 X242.863 Y100.885 E.03074
G1 X242.804 Y101.87 E.03093
G1 X242.501 Y102.792 E.03044
G1 X242.298 Y103.123 E.01218
G1 X242.543 Y103.516 E.01449
G1 X242.773 Y104.208 E.02287
G1 X242.871 Y105.09 E.02783
G1 X242.76 Y105.995 E.02861
G1 X242.434 Y106.852 E.02874
G1 X241.916 Y107.604 E.02863
G1 X241.24 Y108.208 E.02841
G1 X240.425 Y108.641 E.02894
G1 X239.576 Y108.861 E.02749
G1 X237.624 Y108.884 E.06121
G1 X237.624 Y168.197 E1.85971
G1 X239.643 Y168.226 E.06329
G1 X240.731 Y168.564 E.03575
G1 X241.422 Y169.004 E.02566
G1 X241.997 Y169.567 E.02524
G1 X242.526 Y170.407 E.03113
G1 X242.78 Y171.166 E.0251
G1 X242.872 Y171.939 E.0244
G1 X242.759 Y172.923 E.03106
G1 X242.493 Y173.659 E.02452
G1 X242.311 Y173.963 E.0111
G1 X242.511 Y174.303 E.01237
G1 X242.763 Y175.02 E.02383
G1 X242.87 Y175.762 E.02351
G1 X242.836 Y176.473 E.02232
G1 X242.465 Y177.64 E.03838
G1 X241.724 Y178.662 E.03958
G1 X241.252 Y179.05 E.01916
G1 X240.701 Y179.377 E.0201
G1 X239.627 Y179.701 E.03516
G1 X228.098 Y179.741 E.36148
G1 X228.072 Y194.612 E.46629
G1 X227.834 Y195.721 E.03556
G1 X227.321 Y196.748 E.03599
G1 X226.762 Y197.429 E.02763
G1 X226.059 Y198.011 E.02861
G1 X225.019 Y198.532 E.03646
G1 X223.603 Y198.793 E.04514
G1 X109.252 Y198.767 E3.58541
G1 X108.185 Y198.546 E.03416
G1 X107.35 Y198.164 E.0288
G1 X106.626 Y197.645 E.02791
G1 X105.697 Y196.511 E.04598
G1 X105.158 Y195.119 E.0468
G1 X105.064 Y194.269 E.02683
G1 X105.064 Y179.743 E.45544
G1 X24.952 Y179.743 E2.51185
G1 X23.792 Y179.477 E.0373
M73 Q2 S109
G1 X22.769 Y178.879 E.03716
G1 X22.34 Y178.46 E.01881
G1 X21.97 Y177.971 E.01924
G1 X21.597 Y177.205 E.02673
G1 X21.389 Y176.209 E.0319
G1 X21.453 Y175.174 E.03252
G1 X21.792 Y174.196 E.03243
G1 X21.938 Y173.963 E.00864
G1 X21.763 Y173.671 E.01067
G1 X21.513 Y173.008 E.02224
G1 X21.379 Y171.947 E.03351
G1 X21.472 Y171.157 E.02494
G1 X21.732 Y170.393 E.0253
G1 X22.164 Y169.68 E.02616
G1 X22.752 Y169.065 E.02667
G1 X23.541 Y168.555 E.02946
G1 X24.659 Y168.219 E.03659
G1 X26.626 Y168.196 E.0617
G1 X26.626 Y108.881 E1.85978
G1 X24.637 Y108.855 E.06237
G1 X23.725 Y108.601 E.02969
G1 X22.961 Y108.173 E.02747
M73 P3 R109
